X:1
T:Sweden
T:Sweden
T:A Minecraft song for solo cello
T:C418 arr. Marcell Ivánkovits 
C:C418
L:1/8
Q:1/4=88
M:4/4
K:D
V:1 bass nm="Violoncello" snm="Vc."
V:1
"^(\n)\n"!pp!"^Con anima"!<(! !>!G,6 F,2 | (!>!D4 B,4) | !>!C6 F,2!<)! |!p!{/D} C4 z4 | %4
!mf! (!>!G,4 F,4) | (!>!F4 B,4) | (!>!C4 F,4) |!>(! C4 z4!>)! |!mp! B,4 (A,2 B,2) | F,6 (D,E,) | %10
 C,6 (F,A,) | !fermata!E,4 z4 | z2!f!!>(! (D2 B,2 A,2)!>)! |!mp! F,6 (D,E,) | C,6 (A,F,) | %15
!<(! !fermata!E,4 z4!<)! |!mf! G,4 (A,2 B,2) | D6 (FE) | C6 (DC) | A,4 z4 | G,4 (B,2 A,2) | %21
 F,6 (D,E,) | C,6 (F,A,) |!<(! !fermata!E,4 z4!<)! |!f! B,4 (A,2 B,2) | F,6 (D,E,) | C,6 (F,A,) | %27
!<(! !fermata!E,4 z4!<)! |!ff! G,4 (A,2 B,2) | D6 (D,E,) | C,4 F2 (F,A,) | %31
!>(! !fermata!E,4 z4!>)! |!f!!<(! (A,6 B,A,) | (^G,3 E,) (E,2 D,2) | (C,6 D,E,) | B,,8 | %36
 (D6 B,A,) | (^G,3 E,) (E2 D2) | (C6 DE)!<)! |!fff! !fermata!B,6 z2 | z8 | z8 |: %42
"^pizz."!mf! B,,4 A,,2 B,,2 | F,,6 D,,E,, | C,,6 F,,A,, | E,,6 z2 :| B,,2 D,2 B,,2 A,,2 | %47
 F,,6 D,,E,, | C,,6 A,, z | z8 |"^arco"!<(! E,4 (G,2 A,2 | B,2 D2 F2)!<)!!f! (AF | C6 DC | %53
!>(! A,6) z2!>)! |!mp! (B,2 D2 B,2 A,2) |!<(! (D2 E2 F2!<)!!f! A2) | (F4 D2) (F,A,) | E6 z2 | %58
!mp!!>(! (!>!G,6 F,2) | (!>!D4 B,4) | (!>!C6 F,2)!>)! |!pp!{/D} C4 z4 |] %62

